pizza/images/youtube.svg

<svg width="16" height="16" viewBox="0 0 16 16" fill="none" xmlns="http://www.w3.org/2000/svg">
<path fill-rule="evenodd" clip-rule="evenodd" d="M6.52551 9.7284C7.7229 9.1075 8.90984 8.49232 10.1077 7.8711C8.90625 7.24416 7.71964 6.62538 6.52551 6.0022C6.52551 7.24856 6.52551 8.4822 6.52551 9.7284Z" fill="#810000"/>
<path fill-rule="evenodd" clip-rule="evenodd" d="M7.97959 0C3.57273 0 0 3.57257 0 7.97959C0 12.3866 3.57273 15.9592 7.97959 15.9592C12.3864 15.9592 15.9592 12.3866 15.9592 7.97959C15.9592 3.57257 12.3864 0 7.97959 0ZM13.4165 10.6431C13.2784 11.2423 12.7882 11.6842 12.1984 11.75C10.8013 11.9063 9.38743 11.9071 7.97927 11.9063C6.5711 11.9071 5.1569 11.9063 3.75951 11.75C3.16963 11.6842 2.67984 11.2423 2.54204 10.6431C2.34563 9.78955 2.34563 8.85812 2.34563 7.97959C2.34563 7.10106 2.34792 6.16931 2.54433 5.31608C2.68212 4.7169 3.17192 4.27478 3.7618 4.20882C5.15918 4.05273 6.57339 4.05192 7.98155 4.05273C9.38939 4.05192 10.8036 4.05273 12.2005 4.20882C12.7907 4.27478 13.2808 4.71673 13.4186 5.31608C13.615 6.16947 13.6134 7.10106 13.6134 7.97959C13.6134 8.85812 13.6129 9.78971 13.4165 10.6431Z" fill="#810000"/>
</svg>

<svg width="16" height="16" fill="none" xmlns="http://www.w3.org/2000/svg"><path fill-rule="evenodd" clip-rule="evenodd" d="M6.526 9.728l3.582-1.857-3.582-1.869v3.726z" fill="#810000"/><path fill-rule="evenodd" clip-rule="evenodd" d="M7.98 0a7.98 7.98 0 100 15.96A7.98 7.98 0 007.98 0zm5.436 10.643a1.424 1.424 0 01-1.218 1.107c-1.397.156-2.81.157-4.219.156-1.408.001-2.822 0-4.22-.156a1.422 1.422 0 01-1.217-1.107c-.196-.853-.196-1.785-.196-2.663 0-.879.002-1.81.198-2.664.138-.6.628-1.041 1.218-1.107 1.397-.156 2.811-.157 4.22-.156 1.407-.001 2.822 0 4.218.156.59.066 1.08.508 1.219 1.107.196.853.194 1.785.194 2.664 0 .878 0 1.81-.197 2.663z" fill="#810000"/></svg>
